/* XPM */
static const char *floor[] = {
/* columns rows colors chars-per-pixel */
"64 64 255 2 ",
"   c #171B39",
".  c #1C233C",
"X  c #25263B",
"o  c #221B36",
"O  c #1A1F44",
"+  c #1D2642",
"@  c #282B45",
"#  c #332D44",
"$  c #2C3349",
"%  c #33344C",
"&  c #36394B",
"*  c #3A3D53",
"=  c #353954",
"-  c #2C3551",
";  c #443D4F",
":  c #3C4254",
">  c #3D445B",
",  c #35404F",
"<  c #005C7D",
"1  c #03567B",
"2  c #064E75",
"3  c #35536A",
"4  c #06667D",
"5  c #16687A",
"6  c #3D677C",
"7  c #2D6A76",
"8  c #14495F",
"9  c #44495B",
"0  c #4B4C5C",
"q  c #464756",
"w  c #534D5A",
"e  c #4C535D",
"r  c #56555D",
"t  c #504448",
"y  c #715D58",
"u  c #766258",
"i  c #474C62",
"p  c #4B5566",
"a  c #535463",
"s  c #585A67",
"d  c #575F73",
"f  c #415E72",
"g  c #675B64",
"h  c #59636C",
"j  c #486A7B",
"k  c #5A6675",
"l  c #54727B",
"z  c #69656B",
"x  c #6B6C73",
"c  c #656A76",
"v  c #6C747C",
"b  c #697577",
"n  c #76767B",
"m  c #746C6F",
"M  c #5A453A",
"N  c #817978",
"B  c #85776F",
"V  c #7A897D",
"C  c #938679",
"Z  c #A9997E",
"A  c #004D83",
"S  c #005484",
"D  c #005C83",
"F  c #045C89",
"G  c #055C8E",
"H  c #006384",
"J  c #016B84",
"K  c #01658A",
"L  c #026A8B",
"P  c #0C6B89",
"I  c #156A88",
"U  c #05768B",
"Y  c #17758A",
"T  c #066895",
"R  c #176B93",
"E  c #017393",
"W  c #087897",
"Q  c #167996",
"!  c #246A87",
"~  c #396987",
"^  c #28788A",
"/  c #397887",
"(  c #287A94",
")  c #377D95",
"_  c #206B91",
"`  c #0C77A3",
"'  c #257CA1",
"]  c #457689",
"[  c #58788A",
"{  c #497B94",
"}  c #517592",
"|  c #697985",
" . c #747B85",
".. c #66788C",
"X. c #4A79A8",
"o. c #817E82",
"O. c #19828C",
"+. c #188297",
"@. c #068295",
"#. c #288699",
"$. c #398897",
"%. c #308B94",
"&. c #178CAA",
"*. c #288DA3",
"=. c #3989A5",
"-. c #3696A6",
";. c #2F94AB",
":. c #3AA5B2",
">. c #468388",
",. c #478898",
"<. c #578798",
"1. c #469499",
"2. c #55969C",
"3. c #5A888C",
"4. c #6B878C",
"5. c #74848A",
"6. c #798689",
"7. c #688B98",
"8. c #778994",
"9. c #689599",
"0. c #74939B",
"q. c #78979A",
"w. c #78948E",
"e. c #4BA09A",
"r. c #70A59E",
"t. c #5989A4",
"y. c #4999A6",
"u. c #5998A6",
"i. c #508DAF",
"p. c #688CA4",
"a. c #6899A5",
"s. c #759CA3",
"d. c #7899A6",
"f. c #6B94B2",
"g. c #58A6A8",
"h. c #4DA6B0",
"j. c #69A5A9",
"k. c #78A6A9",
"l. c #79B4AA",
"z. c #67A8B3",
"x. c #76A8B4",
"c. c #7BB7B6",
"v. c #68B3B0",
"b. c #7DC9BC",
"n. c #69BAC4",
"m. c #55B3C4",
"M. c #78C9C7",
"N. c #858989",
"B. c #868E94",
"V. c #889797",
"C. c #969A98",
"Z. c #91938B",
"A. c #9AA69D",
"S. c #89A19E",
"D. c #ADAE98",
"F. c #869DA4",
"G. c #8E9DA6",
"H. c #88A7A9",
"J. c #96AAA7",
"K. c #89B6AB",
"L. c #9BB3AC",
"P. c #98B6AB",
"I. c #87ABB3",
"U. c #94ACB4",
"Y. c #88B7B7",
"T. c #98B9B7",
"R. c #A4ABA5",
"E. c #A3B4AD",
"W. c #A7B8AA",
"Q. c #B4BAAA",
"!. c #AABBB4",
"~. c #A5B9B7",
"^. c #B4BDB2",
"/. c #B4AEA6",
"(. c #A79C96",
"). c #C4B8A5",
"_. c #9AC6BB",
"`. c #8AC2BC",
"'. c #B2C1AD",
"]. c #ACC3B4",
"[. c #ACC3BB",
"{. c #ADCBBD",
"}. c #A3C5BB",
"|. c #B2C4B5",
" X c #B3C4BB",
".X c #B4CCBC",
"XX c #BBCDBC",
"oX c #B9C9B7",
"OX c #BDD2BD",
"+X c #B7D3BC",
"@X c #ADC6B1",
"#X c #C6CAB9",
"$X c #C2D3BE",
"%X c #C8D7BE",
"&X c #CDD0B9",
"*X c #CFC09A",
"=X c #98BAC2",
"-X c #8CBAC4",
";X c #A5BEC4",
":X c #9AC8C7",
">X c #94CCD0",
",X c #A7C8C5",
"<X c #B4CCC3",
"1X c #BBCDC3",
"2X c #B4CCCA",
"3X c #BACAC7",
"4X c #AAD2C2",
"5X c #B5D2C5",
"6X c #BDD3C4",
"7X c #BDD9C5",
"8X c #BCD5CB",
"9X c #BCD9CB",
"0X c #B4D7C9",
"qX c #BBD9D4",
"wX c #A9D1D4",
"eX c #BBE3D5",
"rX c #A7EAF0",
"tX c #C4CDC2",
"yX c #C2D5C4",
"uX c #C4D9C5",
"iX c #CBDBC5",
"pX c #C2D6C9",
"aX c #C4DACB",
"sX c #CBDCCB",
"dX c #CAD5C6",
"fX c #D4DBC9",
"gX c #C4DCD2",
"hX c #CBDCD2",
"jX c #CDDED8",
"kX c #D1DED2",
"lX c #CDE1CC",
"zX c #C5E1CB",
"xX c #D2E2CD",
"cX c #D8E8CC",
"vX c #CCE2D3",
"bX c #CAE6D8",
"nX c #D4E3D3",
"mX c #DBE5D3",
"MX c #D4E9D5",
"NX c #DBEAD4",
"BX c #D3E5D9",
"VX c #D5EADB",
"CX c #DBECDC",
"ZX c #DBE6DA",
"AX c #DAF1DA",
"SX c #E4EAD8",
"DX c #E8F3DB",
"FX c #F3F4DD",
"GX c #DBEDE2",
"HX c #D5ECE3",
"JX c #DBF5E9",
"KX c #E8EFE2",
"LX c #E9F5E5",
"PX c #F6F9E6",
"IX c #FFFFF0",
/* pixels */
"H.( ' 4XdX9 . 0 N. .T.~.8XaX,X<XJ.dX].E.~.j.9.q 0 0 tXK.U O.<X5.v k.W =.sX^.@ - c N.5.T.{.8XpX3X!.E.%X].!.P.9.b & s g SXa.@.1.1X",
"E.s.$.F $.sXe q c L.lXpX6XaXs.s.3 pXdXuXiX_.e.Q.> #Xj.J +.3.>X[ B.U.a.Q D a.XX= s  .5XyX6X8XqXd.[ 7.xX$XuXiXc.l.C.0 sX1.J O.9.=X",
"zXy.$.R S g.iX> J.lX6X6X6XaXI.d.3 XXuX6XXX%X_.8 #X`.< Q >.5 rX<.c eX( y.R G Y.W.i 6XdX5X6X6XgXk.3.p.iXyXyXOXxXj.3 SXe.4 ( <.=.;X",
"2.W H { R y.5XpXsX6XyX6X6XpXT.I.f |.uXOXOX6XOXq.LXl.P ,.5 ` M.T.b y.E P ,.Q j.vXjXuX6X6X6X8XgXU.0.d.dXOX$XOXuXL.0.DXy.L <.P ` T.",
"dX^ D P / a.5XpXdXpXyX6X5XvXY.H.3 XXpXXX6X6XOXGXLX,X( P E J _.Q.&X<X< K 5 7 k.BXGX$XyX6X6X5XbXd.H.p.iXoXOXOX6XOX6XNXk.$.R K ( yX",
"x $X2.I $.T.!.<XdXyX6XpXbXpXk.L.I.gXpXsXyXuXyXHXVX{.g.*.Y _.n * s N.{.$.5 >.U.aXBXyXyX6X7XVX2Xa. XY.uXzXuXyXyX7XpXaX}.g.Q ,.L.e ",
"q q R.aXvXVXCXkXtXyX1X[.6.q s Q.L.p | V.L.E.L.BXCXNXNXMXyXz   s C * s oXsXbXVXGXkXdXpX1X~.5.=  .'.B.i  .S.P.P.~.CXCXNXnXVXE.* @ ",
"q $ B.yXxXMXMXfXiXxXDXLXx X % z z & & W.iXoXA.fXCXXXXXW.6.i . c Z.& p E.lXxXnXGXSXfXmXPXfXe $ * z w $ z %X#XW.Q.KXnX.X.XL.5.* X ",
"l ~.LX6X6XpX5XpXmX4Xg.l.pX0 @ C C # &X{.l.Y.VX8XOXuX$XOXvXpXB.E.T.| 1XnX5X6X6XgXCXxX:Xg.Y.tX@ 9 Z u g cXK.c.4X8XE.%XOXOX$XMX[.C.",
"f.NX1XyXyXyX5XhX1X3.< D ^ ].p t t #Xj.H W 9.qX}.XXyX$XOXoXpXJX~ i.I.mXXX6XyX6X8XhX[.1.H 1 y.|.i z y dX#.J O.q.,XJ.%XOXOX$XoXnXbX",
"U.nXpXyXpXyX.XdXcXj.) Y D ) iXD.&Xv.H Q 2.5 qXV.W.dXOXOXOXOX}.~ a.,XsXyXyXyXyX8XhXlX1.) R 2 u.cXQ.fX%.J #.7 z.qXT.iXOXOXOXOX6XY.",
"U.xX6X6X6X6X5X1XcXg.T ,.Y K g.nX<X*.W 2.I J eX5.W.iX$XOX6XuX{.6 p.2XdXpX6XyX6XgX X%X#.K ) T W a.^.5XW +./ J h.9XU.dXOXOXOX6XyXT.",
"F.sX1X1X1X6XuXp E.x.A G ) W M.d.E.h.#.Q D / pXs V.iXOX6X6XyX5X/ f.<XdX8X6XXXlXL.i {.( G I ! :.l.4.<X#.I W K j.|.= W.$XOX5X5X8X}.",
"3XmXsXhXuXCX .= 9 E.I.) ,.:XBXq.P.}.*.@.1.^.h # p pXyXsXsXlXnXJ.~.kXnXkXsXlXsX> = k tXa.) 9.qX!.d.bXx.&.Q k.Q.> #  .lXyXlXsXxXnX",
"PX3Xd.f.f.8.l : g @ A.W.8.5.B.h S.V.d.H.A.& 0 # x q.j 7.q.U.LXPXFXLXU.d.f.p.v i q a > tXJ.5.5.8.| V.V.s.T.Z.* a # N.| j 9.0.[.PX",
"IX=X~ ] <.wX,Xk s q n ).N. .h 9 J.v x A.v $ x x c w.} { 7.Y.LXPXPXPXp.~ ] p.2Xq.p e 9 C./. .k  .c 6.x N /.0 % x c b 7.] ,.t.,XPX",
"dXJ.9.0.9.9.k O z X dX8Xg.1.6Xk [.n.*.dXSX= & : s A.p.f.Y.,XBXKXkXsXV.0.s.a.q.i - s 0 SX_.h.l.[.c <Xh.-.DX#XO 0 $  .G.<.a.T.<XSX",
"0.NXiXiXdX1.H.Z.$ ^.Y.4 U 3.,X..V.2.&.Q 2.dX0 @ N.k 8XaXaXaX,X0.4.J.cXiXiX5X%.!.z q %Xy.4 4 I.:X8.~.2.&.Q j.#X@ 0 n 5.lXdXsXpX8X",
"0.xX1X6XOX+Xv.l ^.v.H W / ,.>Xj @XY.,.Q D 1.xX9 p aXpX6X8XpX,X....q.fXXXOXyX_.2.n uXh.D Q >.z.:Xk VXa.,.T S x.XX- ..lXyX6X6X6X0X",
"0.xXyX6XOXiXk.[ LX#.E / ! &.>Xj 0.h.K ,._ S }.J.<XsX6XpXyXpX2X7.7.0.fX$XOXOXcX[ G.JXE U ,.L :.T.3 x.-.H <.I ( 7X!.pXuXyXyXyX6X9X",
"F.dXXXOXOXOXoX[.MXu.I _ E P vX&XtX( D I ,.) .XXXdXpX6X6X8X6XqXd.7.8.iXOX$X6X6X XLXaX*.$.Q W O.xX#X<XR D Y ,.u.+XBXsXyXyXyX6X7X8X",
"p.nX6X6XOX6X6XaXlX9.#.E D !.6. .Z.XX$.J 5 7.W.|.dXuXyXyX7XGX:X0.k.k.NXyXuXOX6X7XCX7Xj.Q E I ].n r C.<X! J 5 0.|.pXdXyXyXyXpXGXH.",
"3X8.,X].]..X5XyXuXMXqX_.3Xv @ m r e |.{._.}.sXtXdXuXXX.X XC.k R.tX~.q.].[..X7X7XCXxXlX,XT. Xh . n e c .X~.:X0XsXhXdX6X.X.X3X .p ",
"> i 9 b V Z.W.LXxXsXCXVXb @ @ x z . : tXNXsXdXmXdXW.Q.XXV.; @ r h > % a b V A.xXKXdXMXLX1Xq @ = x a + h MXxX6XdXZXiXQ.Q.oXc # & ",
"N X #XcXW.W.sXOXOXXXOX[..XV.N.iX6.h pXyXdXpXpXXXcXNX4X9XLXb . n ).w s cXuXP.'.sXMXOX$XOX[.tXk V.OXc 8.dXpXpXpX6XBXSXiX}.6XdXq % ",
"t Q.Y.Y #.T.,XJ.iX$XOXyXOXCX=Xj.,.8XnXpXyXyXaXW.<XT.Y D ^ !.0 % u y kXh.W $.P.eXBX%X$X$XyX6XLXI./ p.BXdX6XyX8X8XJXuXk.P H ,.^.* ",
"&Xc.4 W / a.0XP.dX$XyXyXOXdX2.u.a.sXuXyXyX6X7XL.uXY./ ! S R pXN.B mX%.L Y 7 c.vXdX$X$XyXOX.X1X/ 6 k.sX6X6X6X6X8XHXmXq.,.Q 2 1.cX",
",XJ Q ,.1 g.5XH.lXpXyXyX6XlX0.<.a.dXpXyXyX6X7XJ.uX4XW ,.( ` y.iXPXj.E ^ 7 U Y.8XJ.%X$XyX6X6X5X4.] H.MX6X6X6X6X5XJXcXK.P ,.R S j.",
"H.#.,.5 K y.oXh XXOXOXyX6XlXk.<.t.XXpX6X6X.XVXB.V.Y.1 T ,.Q *.k.2Xc.+.7 +.H Y.A.c MXXX6X6X6XuX0.] s.nX8X6X6X5XNXG.Q.a.A R 1.` :.",
"!.s.Y K ,.|.s @ 8.CXdXuXyXsX[.s.=XdXuXuXuXsX X0 @ J.I.P L ,.T.~.qXJ.1.E J a.R.q & !.NXdXuX6XlXA.0.H.MXuXsXpXVXL.= > E.p.P Y a.-X",
".X,Xz.a.R.9 0 o V.L.F.T.[.nXFXZXDXZX<X,XI.U.N.@ w : A.6XI.T.<X8.q.6X`.y.I.Z.& q @ J.G.F.~.2XCXDXmXNXBX<X,XT.J.| - w - ^.1XY.[.,X",
"a v C.C.i 0 x a 5.j ] <.<.,XPXPXIXpXX.i.i...0.8. .k i Z. .v ..p 9 c  .A.N.; 0 s z 8.j / t.a.gXPXKXIX;XX.X.X.[ 8.| v d s Z.s | [ ",
"T.z._.IXN.  C.= 6.U.~ a.k.,XPXPXPX X6 j ] Y.T.- c e r FX5Xa.P.b x _.x.vXPX* % N.- J.7.] 9.I.gXPXLXLXL.6 j ] >Xq.+  .* N.PX,X9.W.",
"s.-.T j.5Xv   0 o...<X5X5X8XT.J.b $XoXoX6Xv.>.m * r fX2.J 5 ,X7.B.r.U ' P. X9   x v V.<X<X<X8XU.J.q.uXoXXX6X1.b x $ m uX%.E $.,X",
"{.k.,.1 Y 9XN.% c 5XdXpX6XaXd.4.> OXiX%X%X.Xg.E.z oX1.H O.<.>X} B.,X0.I 2 1.cXa q 6.sXyX6X6XgXs...7.sXOX$XiX_.v.C.m 5XP E ^ 3.>X",
"_.-.( ,.S $.uX| 1XpX5X6X6XdXI.d.j |.uX$XOX%X{.2 kXb.< Q z.+.>X} p wXQ u.R 2 :XXXc nXyX6X6X6XzXk.7.p.sX6XOXOXsXk.3 PX$.H $.7 Q wX",
"a.L L ) ( ,..XhXsX5X6X6X6XaXT.H.[ |.uX$XOXOXOXP.CXY.W y.Y L z.hXQ.,.K R u.R n.CXGXyXpX6XyX6XgXU.d.d.sXyX6X6X6X].L.LXg.Q ^ U J :X",
"fX,.< L 5 s.|.3XpX6X6X6X<XVXx.q.6 pX$XOXOX6XOXGXGX_.1.P F P }.R.^.tX5 < P ,.x.VXGXpXpX6X6X8XHXp.U.t.sX1X6X6X6XOXdXNXk.I L < 1.Q.",
"e Q.k.,.u._.6XpXaXaXpXdXvX!.0.|.<X3X.XzXyX6X+XbXbX6XY.z.z.[.h * r v oX9./ <.2XgXVXdXaXpXgXgXH.q.uX,XE.8XsXyX6X+XpXsX.XY.v.c.A.$ ",
"q @ V.oXXXOXnXnXpXXX|.!.c $ 9 A. .= i 5.L.1XpXnXSXDXLXNXR.e   0 N $ > R.'.|.oXZXnXyXoXXXJ.q X x N.c * k w.L.5XlXmXNXPXPXNXC.@ $ ",
"q p E. X].].|.dXxX1XoX&XC.- = N m X s Q.Q.XXxXNXsXlXyX.XA.c $ V.C.$ 8.W.XX|.|.6XDXiXXX%X&Xn @ q m r & x Q.Q.oXfXmXdXaX6X[.A.c * ",
"7.3XnXyXyXpX8X5XdXY.#.y.,Xb   Z.C w cXc.h.j..XqXOX$XOXOXdXVX XV.k.q.nXsXpXpXpXaXsXhXv.-.j.5X: % D.y g MXv.-.K.<X{.uXXXOX$XdXdX1X",
"x.BX6X6X6X6X5XgX9X7.( S 1 ,XN.w u fXy.U Y j qX.XoXuX$XyXOX6XCX7 ,.T.kX6X6X6X6X8XnXT.<.P 1 $.OXb z u NXO.J Y 0.4X5XuXOXyXOX|.yX6X",
"U.sX6X6X6XpX<XpXNXj.^ ) F T 6XFXSXy.K Q >.^ qXV.W.dX$XyX6XyX~.3 <.8XdXpX6XyX6XgXMXiXy.) Y A y.DXfXVX%.U #.7 y.gX<X$X$XyX$XOXyXK.",
"U.sX6X6X6X5XaXL.lX2.F { ) T u.~.T.;.U >.Y U bX5.W.iX6X6XyXdX{.6 p.3XdXpXyXyX6XhXJ.uXY G 2.R &.u.V.:X@.#./ L *.zX8.XX$XyXyXyXuX}.",
"U.dX8X6X6XvX<X> 6.I.F K ! =.:Xd.E.u.( W < u.!.% v aXyX6X6X6X<X] f.3XyX8XpX6XVXV.- J.u.F D ( h.k.8.<X$.I L < c.R.9 V.uXyXyX6XyX5X",
"hXZXyX1X<X1Xd i w N.{.j.j.E.pX0.[.gXm.&.x.R.p # e sXXX5XuXsXSXXXpXmXnXpX<X0X X> 0 a W.,Xz.z.gX!.V.bX,X-.#.T.Z.9 #  .sX].6XuXlXDX",
"PX;Xf.t.f...5.: m $ N.Z. .8.5.p G.C.5.V.Z.@ s # x 4.6 3.d.=XKXPXPXKXx.f.i.t.5.k q z - R.V.F.8.4.k V.B.6.B.v @ s & n l ~ 7.d.2XLX",
"PXI.{ t.a.T.H.k N.h  .D.N.H.[.9 XX~.J.fXC.= n n a k.{ t.j.I.LXPXIXDX7.} <.d.T.8.k n s Z./.G.J.E.q W.T.#XSX .> N.d b I.{ t.a.T.LX",
"[.!.V.w.q.c.b   s 0 iXI.O.1.BXk J.h.&.0XmX: % 9 x 6.d.d.T.[.aXpX~..XJ.w.w.s.j.p X r w xXv.O.a.2Xv ~.*.&.BXtX= * * B.5.7.s._.<XvX",
"7.NXiXfXxXg.l.C.w fX1.4 Y 9.wX[ J.k.-.H / aXc % x q.lXsX6XaX_.] [ H.NXlXxXzX1.].n r fX%.J ^ x.-X5.2X9.*.D 1.zXi i b J.lXsXpX9X2X",
"0.xXOXOXXXuXg.j SX$.H #.>.=.wXj T.n.%.( 1 ~ AXd | vX6X5X5XpX{.<.7.H.sX6X6XyX7X,.c CXO.H ( 7 n.:Xp eXg.$.R A g.dXi V.lXXX5X5X5X0X",
"0.lX6XyX6XuXK.4.DX#.W 2.I W >X .d.*.L ) ^ P }.[.6XuX6X8X8XpX<Xk.p.F.dXyX6X5XsX4.~.bXU P / U :.:Xk a.&.K { I =.5XpXsX6X6X6X6X5XaX",
"a.sXXXpX6XOXOXuXMXj.$.Y W I pXSXSX,.H P 7 7 {.8XdXyX6X6X6XsX2Xd.d.0.dXoXOXOX+XyXLXzX$.I P H $.nXfXdX! D P ] u.<XhXdXpX6X6X5XpX<X",
"Y.sXaXdXyXyX7XdXyXT.=.` ( [.k d x #Xa.Y ^ 9.}.{.yXyX6X6XzXCXF.q.U.T.MX7X6X6X6X7XHX+Xk.-.Q $.W.a s b XX,.Y #.T.[.sXdXyX6X6XsXVXS.",
"V.d 8.L.[.[..XZXMXmXzXzX Xe $ z z , R.dX8XbXvXvXdXaXpX8XE.k * Z.^. .d V.[.<X.X.XKXcXNXlXvX!.: & N a e R..X5XvXGXnXdXsXpXaXL.h 0 ",
"a X e XXdXXX|.DXNXyXOXA.v = $ V z + b W.'.].XXKXSXNXSXPXZ.@ @ r z $ X b tXfXXX#XDXMXyX.XS.k X : C e $ 6.|.XXpXVXnXxXsXmXZXn X * ",
"y 0 nX_.K.{.aX].iX$XOX6XvX~.J.5X4.5.AXyXyXyXyX XxXMXY.T.GXx   n *X; N MXK.r.oXBXnXOX$XOX6XvXV.C.'.v J.CX5X6XpX7XBXSX0Xj.Y.MXk . ",
"y tX1.U O.q.wXL.iXyXyXyXoXDXK.t.] pXpX6X6X6XpXE.<XT.( K P ,Xb & M C 8XY W $.T.eXxX$X%X$X6X.XPXk.7 a.kX6X6X6X8X9XHX5Xk.P < ! .Xs ",
"dX$.H ( 7 u.8XH.xX$XyXOX+XiX9.<.p.dXdXyX6XyXyXL.dXT./ ( A I qXQ.(.9XY E #.6 Y.gX].%X$X6X6X5X6X[ j -XsXpX6X6X6X8XHXcXc.$.I A $.cX",
"-XE Y / J h.8XH.xXyXyX6XOXsX0.<.<.yXdXyXyX6XsXL.OX_.L ^ ) G ( 8XLXg.L $./ H :X5XV.%XOX6X6X6X9X4.j =XsX6X6X6X6X6XHXcXl.W ,.R T z.",
"T.%.^ P < z.W.> <XuX6X6X6XsXq.<.<.5XyX6X6X<XMX6.| _.D T ) ' -.k.wXc.=.) E K :XN.s uXoXOX6X6XaX4.j I.sX6X6X6X5XMXc J.j.S T ) ` n.",
"T.x.&.E j.W.& $ 5.nXuXsXyXxX XL.,XsXuXdXyXnX!.& = 5.,X^ Q 2.,XT.,X,Xg.W R T.N.# # L.xX6XpX7XCX!.J.3XkXpXaXpXCX8.% & L.H.Y ( z.Y.",
"8XbXc.T.C.% h X C.q.7.H.U.hXPXFXPXDX3X~.U.F.4.= z - 6.fX~.!.^.5.5.vX0Xx.~.b & q & R.0.0.P.T.CXPXDXLXnX~.U.I.F.| : s @ Q.#X~.XXE."
};
