/* XPM */
static const char *mozaika[] = {
/* columns rows colors chars-per-pixel */
"64 64 256 2 ",
"   c #3A1E16",
".  c #192937",
"X  c #16222D",
"o  c #2C2A32",
"O  c #191E27",
"+  c #452B27",
"@  c #4C3634",
"#  c #573A3A",
"$  c #502C31",
"%  c #6F3335",
"&  c #7E181D",
"*  c #58433C",
"=  c #5D533D",
"-  c #76433A",
";  c #303849",
":  c #173545",
">  c #583A46",
",  c #4D3948",
"<  c #643C44",
"1  c #793A48",
"2  c #71354F",
"3  c #783E61",
"4  c #394A57",
"5  c #374D56",
"6  c #2B576B",
"7  c #3C546B",
"8  c #375668",
"9  c #2C5C73",
"0  c #295874",
"q  c #345B72",
"w  c #395A75",
"e  c #324E67",
"r  c #386475",
"t  c #346170",
"y  c #1D5272",
"u  c #4B484B",
"i  c #594747",
"p  c #59554A",
"a  c #474957",
"s  c #574B55",
"d  c #4B555A",
"f  c #595558",
"g  c #634445",
"h  c #6B4C4C",
"j  c #664749",
"k  c #784A48",
"l  c #67564D",
"z  c #74544C",
"x  c #684B55",
"c  c #764A57",
"v  c #6B5454",
"b  c #685958",
"n  c #725454",
"m  c #735B5C",
"M  c #785859",
"N  c #5A6959",
"B  c #696559",
"V  c #786459",
"C  c #77765A",
"Z  c #677358",
"A  c #44556C",
"S  c #485969",
"D  c #535B6B",
"F  c #585966",
"G  c #475A71",
"H  c #545C72",
"J  c #4E4D64",
"K  c #694A61",
"L  c #685967",
"P  c #785A64",
"I  c #72536D",
"U  c #4B636C",
"Y  c #47656A",
"T  c #57666A",
"R  c #496575",
"E  c #586775",
"W  c #5A7478",
"Q  c #4D746E",
"!  c #686669",
"~  c #746363",
"^  c #7C6364",
"/  c #786969",
"(  c #697865",
")  c #787668",
"_  c #666875",
"`  c #776C74",
"'  c #677777",
"]  c #797877",
"[  c #950D0E",
"{  c #BB081C",
"}  c #B7151A",
"|  c #AD1613",
" . c #9B3608",
".. c #972F10",
"X. c #A32C03",
"o. c #AF2B11",
"O. c #91182B",
"+. c #BA0B24",
"@. c #B61627",
"#. c #AF162F",
"$. c #962737",
"%. c #873737",
"&. c #912E2C",
"*. c #A92A24",
"=. c #B42525",
"-. c #A72937",
";. c #B42836",
":. c #B2372B",
">. c #C40C15",
",. c #C30E28",
"<. c #D12833",
"1. c #C42714",
"2. c #874434",
"3. c #A5412E",
"4. c #BD6F2D",
"5. c #873948",
"6. c #983847",
"7. c #9B3C56",
"8. c #89324D",
"9. c #AB304E",
"0. c #A73969",
"q. c #A12E5E",
"w. c #D03750",
"e. c #CD2753",
"r. c #854649",
"t. c #8A4758",
"y. c #904D54",
"u. c #AF4E55",
"i. c #886F57",
"p. c #865866",
"a. c #975566",
"s. c #8E4B6B",
"d. c #AD5065",
"f. c #86686A",
"g. c #867769",
"h. c #876A74",
"j. c #897878",
"k. c #957777",
"l. c #97706B",
"z. c #A87170",
"x. c #B0615D",
"c. c #D6455A",
"v. c #CA5355",
"b. c #E84659",
"n. c #F24258",
"m. c #D0655A",
"M. c #C34A65",
"N. c #CB6760",
"B. c #C67C35",
"V. c #5E825A",
"C. c #73845C",
"Z. c #6A8965",
"A. c #778869",
"S. c #6B9768",
"D. c #788875",
"F. c #799675",
"G. c #6D8E72",
"H. c #67AA68",
"J. c #68B36A",
"K. c #6CA972",
"L. c #73AD74",
"P. c #7AA776",
"I. c #75B477",
"U. c #71B16F",
"Y. c #5EA664",
"T. c #77C877",
"R. c #FD942E",
"E. c #FC891A",
"W. c #898568",
"Q. c #968A65",
"!. c #878678",
"~. c #958778",
"^. c #889778",
"/. c #989876",
"(. c #92976C",
"). c #A79970",
"_. c #87AA79",
"`. c #98A976",
"'. c #88B37C",
"]. c #96B776",
"[. c #8FAB6D",
"{. c #B3A96C",
"}. c #A8A977",
"|. c #AAB979",
" X c #B7BA78",
".X c #B1AE6E",
"XX c #A18F59",
"oX c #C3B973",
"OX c #DF9C5F",
"+X c #9BC274",
"@X c #86C17A",
"#X c #A7C378",
"$X c #B6C77A",
"%X c #CFD075",
"&X c #D9EA7B",
"*X c #EAFB7C",
"=X c #FEFD74",
"-X c #F3FE7D",
";X c #FCFF7C",
":X c #F4F476",
">X c #F0EE75",
",X c #E2DC79",
"<X c #6F7983",
"1X c #577A80",
"2X c #867E83",
"3X c #758E85",
"4X c #7BB584",
"5X c #7EC08C",
"6X c #888785",
"7X c #968A85",
"8X c #889687",
"9X c #969784",
"0X c #949496",
"qX c #AA938E",
"wX c #89A987",
"eX c #97A78A",
"rX c #87B586",
"tX c #98B689",
"yX c #8FAE96",
"uX c #A8A785",
"iX c #A7B989",
"pX c #B4B88A",
"aX c #B2B294",
"sX c #A9A5A7",
"dX c #B4AEB5",
"fX c #A59FA7",
"gX c #CDAFB0",
"hX c #C39B9D",
"jX c #95C68B",
"kX c #BBC495",
"lX c #B2C889",
"zX c #B9D5B9",
"xX c #CCD190",
"cX c #DAEA88",
"vX c #E8EB89",
"bX c #ECFA85",
"nX c #FDFF83",
"mX c #F6FC86",
"MX c #FAFA99",
"NX c #EDED98",
"BX c #FCFDA9",
"VX c #FCFCB9",
"CX c #EBF2B1",
"ZX c #D5DDA7",
"AX c #BBBAC4",
"SX c #BCC7D1",
"DX c #D7C7C6",
"FX c #C6CBD9",
"GX c #CAD1DB",
"HX c #FFFFC5",
"JX c #CDD4E4",
"KX c #D1DAE9",
"LX c #D8E3EE",
"PX c #FAFFFF",
"IX c #EAF3F5",
"UX c #E9DAE2",
/* pixels */
"U p y.x.j.s # < B I.I.G.( p / qXz + + $ V pX9Xl * 8 8 N L.L.L.wXQ.{.A.(.F ....*.&.xXHXBXBX~.; k &.g V DXdX) l * @ AXGXJX0X4 9 9 ",
"B -.,.{ #.x f j g ( Q s.A.L.~.DXsXh @ * h dXdXg u 9 6 8 p S.L.jX' s ~ vXF ..X. .- ) HXVXVXaXF j %.M i ^ / H.S.p   2XKXFXGXj.d t ",
"6.+.-.%.$.s.E s d a 4 e.0.A.gXgXDX7X@ @ dXJXJXdXs 6 9 9 U p y.y.5.K f Q.f ....u s.8.ZXVXpXz.;.c &.*.b j Z.J.J.G.@ * FXGXJXJXL s ",
"y.! _ I Q 8 U ' |.|.U K 5.qXDXDXsXj g + / JXFXKXsXi q 9 T r.+.>.>.,.I / P s S 5 0.e.z./.O.{ +.5.:.=.%.~ S.Y.H.K.f + j.KXJX0XQ.}.",
"mXlX1 <.s.A _.mX-X-XcX(.* M gXdX) Z.B @ @ dXJXFXKXdXb d v @.+.$.1 % c _ S G.`.T D c K P +.$.%.&.:.:.O.n H.H.H.J.( > h dX6XQ.mXnX",
"mX) [ } #.0.' *X*X*XnXoXn * n f.S.J.S.v + l FXGXFXLX6Xl p.O.b E _ R 5 ' #X*X-X*X#XZ.8 _ h.SX] & ..[ & Z.U.J.H.J.G.F D S W.nX-X-X",
"Z.& } =.} ,.0.eX-X-X&X2.*.m v b U.H.J.G.i + 2XKXKX0XW.bXcX|.wX5.e.s.R G.nX*X*X*XnXiXF y.a.UXdXM k.a.h B C.B p p l q 9 0  XnX-XbX",
"> +.@.=.o.} @.c _.bX.XO.=.$.v ) H.Y.H.U.B @ * dXfXg.&X-X-XnXC.#.} #.9.I '.*X*X*XbX7X6.7.7.a.6X7XgXgXhX^ J x > > i q 9 R  XnXnX|.",
"#.,.#.=.&.c U d G _.z *.:.*.&.Z.J.H.H.J.G.b d F F %XnX*XnX|.$ >.=.} } e.h.iX*X*XbX! r.7.a.u 6Xf.hXhXgX7X6 R ~ g s w r H }.nX%XE ",
"t.c U U M ' R R R R r.o.*.[ % S.J.H.H.H.S.T 9 0 E mX-XnX%X4 O.@.=.o.o.} 6._ G.cXvXT E L ! ! 6Xv sXgX7XM 7 S v v x P ] ] ! (.' D ",
"E 3XL $.r.{.E d.a.h.% [ [ O.i A.Z l * i l S 9 9 E vXbXnX_.< >.+.,.o.*.L Y Y 7 A.`.D 0XvXvXmXxXk.z ~ +   # h ^ f./ !.4X8X_ F 6.-.",
"kXD.F L W R.] u.n.c.# $ 1 > g b J h g i g S 9 r H  XnX%XR 6.+.$.1 L E R U R S S D A S [.-XnXxXqXn   + i f ! ^ j.F.S.N b ~ 9.#.F ",
"NXS c 6._ R.i.I c.j D 3.2.i v w 9 R ! v i F E _ _ B .XD.R p._ R E 1 x.qXR d.d.M.M.L U 7 ^.$X4 qX7Xv ! ' W E 2X!.* # u 6 i %.A lX",
"|.A ;.1.u.V S M j C {.% o # w q q q f M v n h.^.D.b H I ;.2 ' U 8.1 i.OXE u.b.c.w.p.<X] _ D T F.4XyXb ' _ d b dXh p q 9 6 5 W.nX",
"G.I #.| <.c S 8 e {.=X(., # u A G s h ^ / h.F.I.wX` P ,.8.3XZXW L E ! E.XXI c.c.w.s y.v.v.d.m F.lXA.i i b 7X0XGXsXu 9 6 6 6 l %X",
"5.7.8.8.s F a 6 A {.=XW.x m c j b h m j.j.P.I.U.rX3X6.1 W NXxX7 r.;._ 4.V _ c.b.w., 4 u.m.v.i ) `.j v + i GXJXFXJXj.4 9 0 t F p ",
"+.+.+.e.I 8 0 8 J .X=XL D.wX9Xk.h.k.f.j.P.U.L.U.I.^.P A `.nX`.A ;.o.;.I G D w.b.c.a : , v.x.P b d S F # + 7XJXFXGXJX/ a t S v -.",
"+.} { @.r.8 8 G ).!.%Xm B }.lXiXtXwX^ h F.I.L.U.I.rX` D cXnXD.I ,.>.<.7.D 4 1 ;.b.I . X # N.V F w 6 S p o i FXGXFXJXSXb p ! 5.>.",
"5.F S F d d a b =XNX~.# $ # uXkXkXeXh < g S.L.L.K.rX] ~.MXvXU 8.O.y.h.R U ^.ZX] 1 1 . X O z z f 0 e 7 ~ * + 0XKXFXJXJX2Xj ! 9.$.",
"1Xs.s.R S T D.XX=X=XW.A E $ # pXxXaXj j < g S.L.K.I.wXQ.{.) (.! x %.k 1 v BXVXBXpXf ; o 4 l z f 8 Q V.S.i @ i SXKXGX] g.&X X/.' ",
"~ +.e.s.U 3X XoX=X%XD r R _ > g.xXkXj > > j g Z.I.'.rXL x x %X' % X.X.X.&.pXHXVXBXNXF 4 r.1 Z.J.H.H.J.K.B g * 7XAX/ (.mXnXnXmX*X",
"$.{ } ;.0._ ! >X=X{.J R S E P ^ j.~.h j ~ R F j W.A.l n T b {.F - X. . ...B HXHXVXVX! % [ 1 K.J.J.J.J.U.A.s S T ! W.mX-X-X-X-XC.",
"} @.@.} @.9.` >X=XQ.a r R ! p.F.P.j.p.m T Y U T f m h z d 8 ^ b - X. . ...o aXHXxXqX&.[ % ! K.H.H.S.Z.V.Z 7 9 9 q  X;XbX*X-X[., ",
"@.=.=.| | } 6.W.,Xv v s F P A.L.L.'.!.P Y T _ ' T ' h.M m m h.j.^ M n k k b /.).i $ % # @ n b h i # # i j q 9 q G .XnXbXnX}.; O.",
"@.@.=.o.} $.1 a ) m P M n j.tXtXrXK.'.~._ T _ _ T ! j.8X8XM D.jXrXwX8X8X3XuX) a L 3.3.s j b G S v j i # f q 9 r D .XnXmXbXQ 2 >.",
"+.#.*.%.h E R Y U b ! _ M ^.].pXtX_.^.k.h.T _ ` ] ^.wXrXtXg.z |.|.+XlXlXtXm i `.z &.# @ f q q q R / j i s r w R D .XnXnX^.S @.,.",
"L U R F _ E R R r _ 7 q b B P.].'.`.g.E j./ / f.'.'.P.P.rX9Xj ).#X[.].|.`.D ) =X%Xs o # 6 q 7 q q F v h x / ` ` _ ~ .X}.R W 8.1 ",
"R _ $.-.OX' E a.P G A H D j V [.`.g.F 7 G ` l.p.^.'.'.'.P.tXM i.#X+X#X$XkXF }.=X>X~ j # , A w S p v m m m f.!.4X] f D H c 6.K R ",
"G 7.5.T R.~.L b.I 8 H E S f x / g.F 7 A 7 G ` f !.'._.'._.'.j.M }.(./.Q./.L }.=X.Xs b / x > F h n P / f.h.^.I.5X8XL L ;.>.1 3X}.",
"R L R E R.OX_ a.y w H E A L _ U ! H 7 7 H ~ T W ] `.'.|.`.~.}.%Xg.a 8 e S ` /.=Xg.! 4XwX7Xf.p.f.f.f.j.!.P.I.U.I.wX/ 6.#.K 3XBXuX",
"E -.&.W E.R.T a.d.6 w A H d.u.a.f.] S T rX3Xf <X<X9X(.W._.Z >X=X{., d e W.NX!.,XV p (.lX|.eX9X9Xj.P D.I.U.L.U.U.rXh.y.J W bXMX! ",
"x =.1.t.i.f R a.n.v.F w L u.v.v.u.b ] jX].v p ! b ~ h C.T.V.oX=X,Xb u , {.;XNXg.< $ $ uXxXiXiXrX^ h B L.L.U.U.U.4Xj._ A }.nX%XS ",
"9.} | ,.7.S Y y.b.b.w.F ; i v.m.x.b B ].i.n n p.f.~ L.I.I.S.}.:X>Xb c V :X=X:X/ f _ @ $ }.kXkXaXn # < ( I.L.L.K.4X8XL ] bXnX/.G ",
",.>.<.w.t.E e > #.b.c.a . . 1 m.x.b B f d f ~.9XT 8.M V.K.I.G.T W.B s {.=X=X).S Y R L $ v kXxXaX< # h j A.I.L.K.L.eXP xXMXNXF F ",
"5.6.a._ R E T iX) $.w.K . X o u.x.l S w q 8 ' d 4 r.u e d Z S.K.^.f x %X=X>Xb S U S E x g uXxXuX< < < # g Z.L.K.K.rXf.{.nX/.F x ",
"E &.%.c x ] NXBXCXD.> $ . . O # p.v S q 6 8 d <X/ # 8 9 0 8 p z ;.#.f.:X=X%Xs U R G U M n h.qXpXh # < m v g S.I.K.jX6XM V F  XZ ",
"c X.X.X.o.k CXVXVXBXuXa ; o o i j * a 6 8 7 B dXGXj.a 6 9 t f -.,.@.j .X;X)., 5 7 R ~ p.] P.6Xf.n n ~ R U h n [.F.( / ^ P V vX! ",
"- X. . . .% eXHXVXBXBX}.; o m / c ~.6X<Xu @ 2XKXFXJXfXl 5 Y m { $.L D J  XV x j a D P ) L.K.I.7Xp.! Y Y S T b v h g k L S V oXF ",
"2.X. . . .% T HXVXVXVXaX; W.cXg.$.DXDXgXh + @ sXKXFXJXGXj.p / t.' p.9.s.K f M m M P j.wXP._.P.'.!.^ Y T E ' W W ` M z ~ e T f.s ",
"z 2.&... .% 5 CXHXVXZXuX%XnX$X$ ).DXDX7Xl v + @ dXKXFXKXfXQ.cXbX$X%.{ @.;.5.! ` P / _.tXiXiXP.'.tXj.D T _ ] T Y <Xf.M M m ^ h.f.",
"8X` L v M P s }.uXV 7.x.nX&Xf & g.gXhXZ.J.S.p @ @ dXLXSX) vX-XnX(.O.1.=.| y.R q L V P.[.pXwX'.tXg.k.` U T ! ! ! / ~.8X8Xf.~ yX8X",
"jXrXrXwX8X] ) .X).f 3 q.%XG.$ %.p g M Z.J.J.K.b @ * dXj..XnX-XbX( | =.} 3.R e S D g B [.`._.iXg.h.<Xk.E ] / ) ^.wXrXrXiXg.n tXjX",
"].#X#X+XtX}.bX-X-X%XZ.4 ' T $.r.r.l n A.H.H.J.S.v f d J .XnXnX].; @.+.-.R 7 D H G h g C ].`.g.h.D w ` ~ ^ h._.'._.P.P.rX/.< Q.lX",
"].].+X#X`.] cX*X*XnXlXU P P $.&.=.&.h Z.J.Y.Y.J.Z.8 9 0 .XnXnX|.2 ,.$.J e S E _ S D c t.A.) ` A A G G h.l.M ^._._.'.P.'.9Xk g.$X",
"[.+X+X#XiXp.9XbX*XbX!.t.u.d.L &.:.%.FX9XD.9X^.Z b G 0 w ) *XnX8XF c R G w G G H A D u.w.h L 7 7 A G A _ ! g W.'._.'.'._.tXp.z `.",
"].$X$X|.pXr.K _.bXcXT 5.7.t.x *.&.FXPXdXk.gXgXl.# S 9 R F g.[.E 6._ D.D H q G A D a.w.s 7 g.T 7 A A D 7 9 _ ~.'._.'.'.'.tXk.M (.",
"f./ _ ! L S t 7 lXpXU ] L F B k FXPXPXIXg.gXgXf.i f D ] 3Xs J ;.O.8XZXG y.k y G ! c a y A %X{.A a i 7 w A s ^ _.].`.`./.~.!.' f.",
"U D 2 y.!.R D G E W S xXcXcX}.f sXKXIXPXsXM j   # m ^ F.Z u d O.J xXNXA -.1.5.L b 5 0 U ! >XoXL ] P i f h h ^ 7X/.^.8XL E c 5.K ",
"wXx 5.i.{._ c.M.d.L 5 ( mXnX.X, &.%.i ] qXV   + # m sXV # q 9 e s mX$XF 1 | <.L U B F y./.%XXXN jXeXj.l.f.h.j.F.L.U.4X` 7.,.c 3X",
"8 v H XXR._ c.c.w.a.1XR F.C.a W.i.i d f gXDXg.@ i sXJXdXb 6 9 9 S V 9.#.9.2 f.D E U f e.d.W.> + C lXiXeXj.P F.U.U.U.rXj.%.J iXMX",
"G *.*.i.4._ M.c.w.x y.z.c J ( _.3X! W fXDXDXqX# $ dXGXGXAX~ 5 t N -.>.+.+.t.l j ' A.T F 3 f E F + /.xXaXv # B L.L.U.I.!.J ' nX|.",
"s.>.>.9.G D c.b.w.; n v.v.y.F.jX^.f f gXDXsXb l $ i FXFXJXGXj.d m +.$._ F d U ^.&X-XcX|.Q T p.E i n xXkXj < # Z.I.K.I.8X` cXmX! ",
"#.@.;.7.D 4 6.n.M.4 ; u.N.b B (.z l i n qX/ H.S.p   ` KXFXKXsXW.).p.W s.q.H W &X-X*X-XbX' t.9.a.~ n /.pXj # < j S.K.L.wX).nXpXJ ",
"F r.v A ' `./.5.M.4 X # N.~ F S F r.y.b g A.J.J.F.i + 0XLXdXg.mXbXbX(.[ ,.9.s.3XcX-X*XbXP 6.u.c f ^.^.k.n h ! L v P.].4X~ l ) /.",
"v X...&.l.BXVXkX> . X O k v 8 9 6 %.=.5.v Z.J.H.J.( # l 0X~ ,X-X;XcX< } =.| } 9.l.|.bXvX' L < F ! P.I.^.c T U U b l C n P f {. X",
"2.X. .X.% CXVXBXxXa o u j h 5 6 d &.:.*.k S.J.H.J.L.! G e T -XbXnXZ.O.@.=.o.| %.s G `.lXU eX|.cXvXeXP.P.~.L f L ' E P z b 8 f./ ",
"k .. . .# aXHXVXVXd f j.9XD.C %XXX..:.| %.I.H.H.V.Z T 0 9 ' *XnX&Xa +.+.@.*.x R t r t U Y T %XnX%X( fX0X~ _ E _ ! U ` f.^ m ^ n ",
"] m k 2.s uXVXaXqX) ^.rXrXwX.X=XXX& [ &.i ( l # > # d 9 9 E vXnX^.2 #.t.F K l.W L a.a.d.I R 7 ^.( ! 0X3X! 1XW d m !.8XeXtXM D.yX",
"jXtXF.8X_ ~.~ j ~ '.'._._.Z.}.=XXX$ % h i f S b b g d w E _ C `.R c L Q x $.XX{.I n.c.w.7.P p.2 L D.@XrXf ! ` k.g.'.I._.tXM W.lX",
"].#XlXiXA E h.l.f._.'._.D.sX/ V f r.&.# f q q w ~ v x P !.8Xs J ;.8.3XeXx E i.R.) d.c.b.8.g v.v.u.b `.C h qXgXqXC '._._.'.j.V |.",
"].+X#X9XA w E h.f.^.'.^.GXPX7Xk.k.l.h @ 4 w w s h P / A.I.rX] 6.#.' NX' L $.! B.! s.b.b.1 : r.m.a.b b f ! M ^ + p '.'._.rX/.z |.",
"|.|.|.!.7 G ^ h.j.^.( GXPXPXsXk.gXgXqXh < s f h m h.!.I.U.I.8Xy.a `.nXU t.1.;.c G f w.n.t.: . r.x.v G w 8 i   + # [.`.`.) B p (.",
"/.}.g.F D j.f.] I.Z.AXPXPXPXLXf.gXhXk.C 9Xj.h.j.f.j.I.L.U.U.wX! D vXbXW 9.>.<.s.D S i.6.9.; X O M z d 6 e 6Xg.+ g !.dXg.# 5 6 d ",
"p }.pX] wX!.< b L.Z.yXzXsXIXPXj.f.b   = lXiXtXwXP i Z.L.L.K.4X] !.MX}.a $.7.h.7 E xXBXiXx ; o ; h k / <XsXgXg.+ i FXJXdXu 6 6 6 "
};
