/* XPM */
static const char *wall3[] = {
/* columns rows colors chars-per-pixel */
"64 64 256 2 ",
"   c #29180A",
".  c #34281C",
"X  c #34291B",
"o  c #3C2F20",
"O  c #711600",
"+  c #542B0F",
"@  c #782604",
"#  c #693718",
"$  c #783812",
"%  c #71310B",
"&  c #473A2B",
"*  c #423E34",
"=  c #672C15",
"-  c #73451C",
";  c #564938",
":  c #504636",
">  c #734E2E",
",  c #7E603E",
"<  c #5E5443",
"1  c #514942",
"2  c #6C5A44",
"3  c #7A654A",
"4  c #776C57",
"5  c #716E61",
"6  c #811700",
"7  c #8B2C02",
"8  c #852803",
"9  c #912A02",
"0  c #883508",
"q  c #943503",
"w  c #943A0A",
"e  c #873B11",
"r  c #923E11",
"t  c #A13E05",
"y  c #97410B",
"u  c #8C4619",
"i  c #974717",
"p  c #9B541E",
"a  c #A7551D",
"s  c #A84B16",
"d  c #8C4C26",
"f  c #964D23",
"g  c #8B542A",
"h  c #995629",
"j  c #875A34",
"k  c #985B36",
"l  c #A65928",
"z  c #A35D32",
"x  c #A85E34",
"c  c #B35C27",
"v  c #9A663B",
"b  c #8D6237",
"n  c #AA622C",
"m  c #A86738",
"M  c #B66A38",
"N  c #AC723D",
"B  c #BA733C",
"V  c #B46128",
"C  c #C2753B",
"Z  c #876849",
"A  c #976B47",
"S  c #9B7249",
"D  c #887457",
"F  c #987857",
"G  c #896C53",
"H  c #A46B42",
"J  c #A96B45",
"K  c #B46E43",
"L  c #AC7345",
"P  c #AB754B",
"I  c #A87749",
"U  c #B4754B",
"Y  c #B47A4C",
"T  c #B97746",
"R  c #A97956",
"E  c #B37C53",
"W  c #BA7C53",
"Q  c #B47B58",
"!  c #897B64",
"~  c #997E62",
"^  c #AB7C61",
"/  c #A15F41",
"(  c #C57B48",
")  c #C57D53",
"_  c #98825C",
"`  c #B9814E",
"'  c #A9835A",
"]  c #B48254",
"[  c #BC8355",
"{  c #B4835B",
"}  c #BB845B",
"|  c #BC8B5D",
" . c #B8895A",
".. c #B4905F",
"X. c #998567",
"o. c #9B9377",
"O. c #94886F",
"+. c #A88A68",
"@. c #B28563",
"#. c #BA8761",
"$. c #B48B63",
"%. c #BC8C63",
"&. c #BC8C6B",
"*. c #B38A6B",
"=. c #AB936B",
"-. c #BD9266",
";. c #BC936C",
":. c #B7966C",
">. c #B78D73",
",. c #A79777",
"<. c #BD9372",
"1. c #BC9B74",
"2. c #BB9B7A",
"3. c #B59978",
"4. c #A78D72",
"5. c #BCA37C",
"6. c #B8A57A",
"7. c #ACA37D",
"8. c #C7824C",
"9. c #C28354",
"0. c #C38B5C",
"q. c #C78758",
"w. c #D28957",
"e. c #CC925D",
"r. c #C4915C",
"t. c #D8965C",
"y. c #D0864D",
"u. c #C48C64",
"i. c #CB8D64",
"p. c #C48B69",
"a. c #C39264",
"s. c #CB9464",
"d. c #C3946B",
"f. c #CB946B",
"g. c #C49A6C",
"h. c #CD9A6C",
"j. c #CB9966",
"k. c #D49968",
"l. c #C39473",
"z. c #C49B74",
"x. c #CB9C74",
"c. c #C49D7A",
"v. c #CB9C7B",
"b. c #C99575",
"n. c #D39C72",
"m. c #D49C77",
"M. c #D28D60",
"N. c #D5A26C",
"B. c #C3A274",
"V. c #CCA274",
"C. c #C4A37C",
"Z. c #CBA37C",
"A. c #CCAA7C",
"S. c #C5A97C",
"D. c #D3A374",
"F. c #D3A47C",
"G. c #D3AA7C",
"H. c #DAA779",
"J. c #D7AB77",
"K. c #E3B07A",
"L. c #A89C83",
"P. c #B89C82",
"I. c #A29E90",
"U. c #AAA185",
"Y. c #B4A584",
"T. c #BCA583",
"R. c #BDAA84",
"E. c #BCAC8A",
"W. c #B7A689",
"Q. c #B6AA93",
"!. c #BBB497",
"~. c #B4AB91",
"^. c #B9B4A5",
"/. c #9E9A8D",
"(. c #C69E82",
"). c #D09F81",
"_. c #C4A483",
"`. c #CBA582",
"'. c #C4AC84",
"]. c #CCAB84",
"[. c #C3AD8B",
"{. c #CCAD8B",
"}. c #C7A58A",
"|. c #D3A683",
" X c #D3AB83",
".X c #DBAD83",
"XX c #D3AC8B",
"oX c #DAAE8B",
"OX c #D6A685",
"+X c #C4B28D",
"@X c #CCB38C",
"#X c #CAB487",
"$X c #D4B284",
"%X c #DAB284",
"&X c #D4B48C",
"*X c #DBB38B",
"=X c #D4BA8D",
"-X c #DCBA8D",
";X c #C8AC93",
":X c #D5AD92",
">X c #C4B493",
",X c #CCB493",
"<X c #CDBA93",
"1X c #C8B99A",
"2X c #D5B493",
"3X c #DAB593",
"4X c #D4BB94",
"5X c #DBBC94",
"6X c #D4BD9A",
"7X c #DBBC9A",
"8X c #D6B59A",
"9X c #E3B78A",
"0X c #E3BC94",
"qX c #E2BD9C",
"wX c #E4B695",
"eX c #E1AD84",
"rX c #C7BCA5",
"tX c #D7BCA3",
"yX c #C1BCB1",
"uX c #E1BDA0",
"iX c #CAC29E",
"pX c #DAC295",
"aX c #D4C29B",
"sX c #DCC39B",
"dX c #DBC799",
"fX c #E3C295",
"gX c #E3C49C",
"hX c #E8C79A",
"jX c #E8C494",
"kX c #CCC4A7",
"lX c #DBC4A3",
"zX c #DCCBA4",
"xX c #D7C7A8",
"cX c #DBD3B7",
"vX c #D5CCB2",
"bX c #E3C5A3",
"nX c #E4CBA3",
"mX c #EBCCA4",
"MX c #E3CCAB",
"NX c #E9C8A9",
"BX c #EBD3AC",
"VX c #E7D4AA",
"CX c #F3D6AA",
"ZX c #E6CDB2",
"AX c #E5D4B2",
"SX c #E9D9B6",
"DX c #F2D9B5",
"FX c #F2CDA7",
"GX c #EBE2BC",
"HX c #F7E4B9",
"JX c #E6DBC3",
"KX c #EAE4C6",
"LX c #F7E6CA",
"PX c #FFF7DB",
"IX c #F7EDCD",
"UX c #E6E1CB",
/* pixels */
"X.+X<X,X@X'.<XR.5.aXdXaXaX<X#X#X'.'.pX=XaX<XR.'.aX6X=X=X'.6.5.#X'.#X@X=X6.S.pXpX<X4X4XgX=X6.B.=X5.4X=XpXdXnXVXsXsX4XpX@X6XsXhX@X",
"5 xX_.&X7Xz..XBX,.f.x.z.h.-.%.D.$XV.Z.V..XqX'.| j.H.a.mX,.`.z.Y P m K.U.-.q.9.q.W x.].`.Z.V.x. XZ. .-.z.A.`.XXZ.Z. XZ. Xz.a.HX!.",
"5 ZX`.2XqX$XA.IX,.S m { [ Y k.n.&XG.F. Xg.x.l.9.( <.a.| j J { W U p K.O.v Y N M n  .a.0.W x.;.]  .<.].z.%.v.XXc.c.@.<.} v N BXcX",
"4 8X8X8XgXA.%XkX].pXB.*.S E j.H.*X*X*X5X$Xz.0.9.T m K -.> f b k h y eXW.R P q.T M d.%.E %.c.1.$.1.5XlX*.1.3XXX X`.&.<.Y W ] sXSX",
"< W.2X2.-.x.zXF W F.*XpX6.5.R a.oX.XBXMXDXAX$Xz.;.L n VXY.F A { _.L MX4.m z.0Xq.9.z.<.c. XC.z.B.`.C.{.2.C.Z.;.XX3Xl.Q Q P z gXAX",
"5 Q.MXC.$.fXE.Z.s.&.2XnXgXmX4X6.@X:.2XqXbX,XZ.x. X} | xX3.].[.'.+X<X+X> M f.*X8.( u.J >.-.-.:.].{.@X+Xz.$.#.>.Z.<._.{.{ { Y NXSX",
"O.8XtXV.@XVXG f.z.>.nX5XbX-XeX%X-XpX'.2.@.@.R L W H J.,.j L J z p j.<Xj e. .{.:.} p.;.*.E %.<.4XaX6X5.' I %.;.$.z.{._.l.`.z.SXSX",
"5 ;X6XpX,XL =X$.Q 8XSXMX7XgX*Xu.f.G.H.%X#X5.=.P m n 7XG e k A f x |.1X- M } `.1.@.2.<.;.Z.c._.4XlXlX5.'.c.C.C.C.C.4.`.XX2X XLXSX",
"2 1XW.F J m M FX4X2XMXDXgX7X5X;.0.u.0.q.x.*XfXdXX.5.GXG - f J z k K.pX_ 6.6.W.E.,X6.Y.E.@XE.E.5.Y.T.E.1X>XR.>X{.aXR.Y.R.C.sXBXAX",
"< MXX.m T K m T HXdXF ].c.d.z.{ l.v.#.T q.T W k.J.pX>XaXE.X.R m m CX+XdXnX-X-X$X].A.C.1.5.=XS.'.@X2XC.c.7XaXsXxX3.@.| n W b.GXSX",
"; >.nXF ` m U E [ fXY.F c.v.f.[ a.u.g.[ M K Y n T hXX.k K d.aX1.'.!.,.B.;.gXfXg.Z.z.E A._._.8X].aX6X{.c.{.lX@X+XS m m v H } SXAX",
"; ^ *X_ E [ { { I u.hXrX^ d.x.d.9.} a.U K U 9.) k.iX# x z p c p lXo.B.g.F.CXDXfXG.A.{ a.}.7XnX`.C.5XC.&X{.].=.R.A n f h m Q DXAX",
"; *.|.6X+.f.%.' g.x.] fXiX+.f.n.} #.E T T 9.} [ jXSX- y K L i i 3X,.D.%X0XNXMXzX;.:.-.:.1.@X:.&X_.1.5XfX}.5.A.W.b n n L R @.HXGX",
"< P.qXSXF { V.z.-.a.V. ..XpXX.u.d.a.q.W @.V.a.D.AX=.$X- p H w B <XX.fXfXgX4X&X4XC.g.&.B.;.5.' %.S.=.-X7X&X X0X5.S %.v L } n gXKX",
"4 P.Z.CXY.*.@X$X1.D.F.z.d.J.aXX.W i.q.Q d.oX%XCX,.u ( $XD e c 0X~.1..X9.B s. .L { k.Z.z.Z.:.-.' J.G.2XsXfXG.9X#X' -.R P $.P BXKX",
"4 R K n.lXZ D.Z.C.G.x.V.A.B.%XlX~ m ( F.oX#.-XxXb W y M BXX.-.IXL.2XV.T C B L -.G.%X=X2X5X`.P E j.x.x.h.V.G.K.+X' h.-.`._.@.ZXGX",
"< H m W nXO.:.&Xd. XV.g.@X5.' -XSXG v eX Xz.DXD r l p i C N.Y.xX<X<X[.T.T.+X+XY.E.T.3.T.5.=.6.=.5.'.'.1._.C.'.7.A N.z.bX4X{ ZXSX",
"; P Q @.n.>X+.V. .l.A.A.:.B.A.G.5XIXD H .XnXE.C.> u i u y ( cX=..Xs.Z.gX@X3XbX8X XeXf.g.W a.D.z.dX' D.I m p k.1XF G.x.`.{.j.AXcX",
"> Q c.OXh.nX,. XZ.g.%X X9.%X-X XV.@.dX4.4X1X# B aXZ e w l 9X,.z.i.%.V.XXc.2X:X|.XX} <.v.eX.X .&.kXS T #.;.v 0.1.+.H.i.V.2.u.nXUX",
"; Q l.oX*XCX~.+.mX8X| ` L [ 0.z.| Y 9.GXE.d e 0 8.dX# q y.zXX.i.} D.J.`.Z.`.:XOXp.%.d.f.n.k.{ {.~.v L R B.n j.1X+..XZ. X&XR nXKX",
": *.p.3Xv.XXAX! G.&Xz.r.T T Y E g.8.0XGXD y 0 0 7 y.U.g pXX.d.h.f.u.F.XXXX`.XXv.|..X( e.g.T U `.L.b ;.p H m s.kX+.oX].C.*X| 5XSX",
": l.).OX5X2XbX7.Q $X=XV.e.U 9.[ 0.mX!.'.E.= 8 i i 8 ) kX4.f.p.F.i.u.p.).:X3X|.m.Z.P T h.B ( Y Z.U.S W H m m | +XF 9XF. X-Xu.sXKX",
"& l.h.b.|. XbXVXX.*X].G.a.] [ K.CX1Xj q %X>Xg @ q q k.Q.L w.( q.w.q.Q p.f.i.u.i.E T n 9.9.( B H.Q.R ` 0.m ' %.>X~ H.H.oXD.M JXcX",
"& ;Xf.u.d. XbXlXY.4.H.V.$.r.=XSX4.d h m u T -XX.@ t.kX3 0.p.q.u.v.OX<.Z.x.d.&.[ W W B 9.[ d.P F.U. .A.V.E #.-.rXA F.*X9Xq.a BXvX",
": ;X(.q.W v.c.:XxXZ e. X5XVXT.pX_ @ y z f q i 9XkXE.<X+XR.,.@X@XR.aX4XE.+X[.[.3.+X>X3.R.+X>X+X>X,.R s.G.F.m { Q.R u.(.h.n P DXSX",
"; }.).i.W K Q &.&XX.@.bX+XA 0 M MX, q y p L i K.vX,.=XG.J.h.h.N.fXnXnXfX-Xc.G.E sX<X=.nX&XpXaX3.rX=.V.&.V.D.z.,.<.f.XX0.J A AXVX",
"; <.p.0.K m } 1.z.vXkXU.$ 7 i 7 y.kX# l i K h.1XP.*X-Xj.H.G.s.h.bXbX@X@X-X|.Z.` ].5.T.pX4X8X@X>XU.1.&X{.=X,XSX!.*.wXn.( q.h bXSX",
"; *.d.u.z.z.C.W.' ] ( Y.+ w u 0 8 NX4 f l K.!.E.BXhX{.V.9X Xn.K.-XD. X;.*X XF.h.hXE.4.lX,X'.[.6X~.'.hXA.@X,XsXQ.G H.e.q.n.h.nXzX",
"! >X3.2X_.nX!.$ q y y e.L.# i i 0 V '.Z 9XrX1XhXfXmXc.G.gXA.D.H.x.g.j.k.n.g.G.Z.9XS.X.MXlXMX_.d.P.4.gX'.C.hXC.[.,.2.5.].C.:.BXSX",
"; / k h y h.cX- 7 8 y q jX4 O w 7 9 H.!.xXo.@X0Xe.y.T w.H.r.e.q.n. XN.D.s.s.$XZ.G.B.!.VX[.,XC.f.$.F 5X;X7X+XR L 7XG e M z 0 HXJX",
"o k R k u R cX3 u 7 q q i lX> w a A.!.+.FXvX+.A.XXH.D.-X0X Xm w.9XG.%XG.N.=X Xf..XT.T.fX].6X7X0.C.L.iXzX4 H a q l.G i x z 7 ZXGX",
"X J l f 0 7 mXo.% l a w 8 i.iX+.aX1XaX%. XAX3.<XaX'.<XE.3.[.T.C.,X[.<XB.:.S.5.=.#X,.[.BX7XMX-X-XE.*.E g.D $ x i `.X.h e r i ZXJX",
"o d i w y i p.vX% 9 q q M =XrXrXzXHXnXmXc.kXY 9.i.a.s.b.[  .x.x.Z.3XCX0X7XBXpXXXCXQ.@.7XSXAX=XD h Y { I Y.# T m Z.D u f e m SXKX",
"+ e 0 0 7 7 x UXF } ..@X>XzXo.T.mXSXBXBXH.kXh ( q.f.i.9.G. X0.F.3XqXgX0XbXBX3XqXLX^.:.gX,Xv x +.$ m XXd.T.Z M J [ , i z k f SXKX",
"  $ k u d h B.cXrXrX,X7X0XqXI.[..X`.bX3Xk.kXv ( T i.0.f.H. XT | .XBXMXsXNX3Xx.v.wXrX7.~ % y f Z.> p h f _.3 k u K Q.w l { z MXKX",
"; F ,X>X5.c.nXrXg d.3XwX*XqXO.1XBXzXAXDXgX^.T ( B M T i.k.H.eX*XFXBX:XXX8XXXv.F.jXcX3 O r y g U X.$ i w m O.- V H.kXF $XA.aXCXAX",
"< lX X`.|.x.*X!.f i.XXZXc.}.~.1XpX,XBXHXIXrXH w.q.M l c w..X*XqXFX8XXXXX}.XX3XCX!.R O.O q u ^ / 3.- w x l.rX+.4X2.<.B.7X6XlXLXSX",
"& }.5X0X X%.mXL.z 9.&.oX@.v.vX<.a.%.gXSXLXyXL w.8.) c V q.e.k.n.5XOXXXZX8XoX7X1X- 6 P L.$ f m f @.G v &XVX[.X.S.d.p.%. X{.2.LXSX",
"& XXlX7XF.&.HXo.m k.9.Y q..XkXb N s.5X,XLXrXF z.L U  .u.j.k.a.Z.2Xv.c.R <.SXkX- 9 8 8 f =.> s V J.+X,.$.[ {.G .X3X`.Z.%.].'.KXSX",
"o 8XbX'.{. XhXo.m m.0.Y ( f.cXW.<X>X,X>XzXAXaXzXlX@X4XlX4X6X=XaX'.-XBX[.xXF Y 6.@ 8 0 w i 4.S -XR.' | 9.s.*X+.Q a.d.gX%XA.C.LXAX",
"o <.d.XXc.XXmXU.m T U } n W yX{.mX`.XXXXMX7XZXNX7XbXNX0XBX7X%XhX.XH.uXUX~ @ 9 G.4 O 8 8 6 8.kXX.E s. .0.0.k.+XF %.-.0X*XD.g.GXAX",
"& @.:XtX6X XCXO.h y.B 8.a u.^.T.0XF.h.b.v.qXqX`.`.z.3X2X5X&XmX3XgX9XBX,.e 8 f M MX, O 9 9.>X3.W 8.M.%.8.W ( 6X! Y j.j.$X-.N SXSX",
": {.P.{.bX,XBXU.h ( f..XU i.^._.3Xj.M ( M v.u.9.i.) ) 9.s.h.*XBX-XCX1X$ s f f m ) ;X> T E.R d.9.q.9.e.q.k.q.;.6.v D.x.%Xh.N.KXKX",
"< 2X].oX3X6X3X~.v T 9.d.v.n.yXR { l.N M B } m M M ( T f.9.( w.3XD.BX4 O s l J W l p fXL.F W i.p.0.j.D.H.N.C.I 0XZ |.7XG.XXh.LXGX",
"; T.Z.v.lXAXbXI.u a l E l.-XI.+.0.P W n M 0.h M M Y h.k.F.H.q.i.mX1X3.Z e r J U h T BX! {.$.Q l.v.XX_.3XF.D.x.H.,._.CX9X-XhXIXGX",
": P.Z.|.l.4XgX,.p V i K %.gX/.S q.&.L z n B M M p.T 0.C n.F.XXK.xX> t W E.+.S h c lX,.,XG R @.l.&.`._.fXc.d.|..XT.F mX9XfXLXPXnX",
"& c.@.z.{ 2.&XkXj m n #.*.{.rXF { z.=.R | d.} $.C.Z.XX{ x.Z.Z.AX3 w M K B -.L.D =XX.} ).xXD F XX<.2.8X4XlX}.5X#. XL._.gXmXSXIXzX",
"o z.#.<.;.].qXvXY.lXR.>XAXaX2.'.aXT.'.,XkX4XzX8XdXxX@X@X@XS.zXkXD 0 x L Y z K lXX.9.W L 0XlX! {.0X}.Z.{.2.2.c.] #.1X,.FX*X5XPXAX",
"o Z.c.2X=.{.mXo.k W Y @.XXA.A.x.9.( w.9Xz.x.e.H.e.w.y.9XH.C MX~ u.~.A H U V y.3.$.F.f.i.z.*XaX! *. XZ._.4.c.&.q.u.].P.G.H.V.IXSX",
". *XsXnX{.>.FXO.g v L ;.'.#XBX4Xx. X&XN.t.2X0.0XMXh.) u.U x.cX# 9 m C.4.d s F.O.*X XXXXX|..XhXgXD ~ c.<.@.] Q { u.f.1X2..X3XPXMX",
". 8XZXxX{.c.NXX.- I N z.#X-X&XlX[.4XBXgXJ.%XD.x.W.ZXi.k.s..XY.0 i 0 q ) ' -.X.+.bX{.Q <.'.Z.XXx.fXX.Z ^ J J P Q H W {.X.i.#.PXsX",
". tXtXxX;XlXMXI.$ N ] ].5X].C.sXaX7XG.mXSX4Xh.k.H.G.dXDXD.gX3 @ g k r 8 h.L.4.sX3X2X$.L z.z.x.=.-.*X=.D 2.R } [ U m 0.7.[ Y SXBX",
". xX{.6XZXxXHXo.j r.C.v.$X@XS.zXpXsX'.VXpXsX7XBX-X*XVXbX0XVX,.Z # 0 8 w A.o.+.gXVXaX1.L x.*. XXX;.(.CXW.O.:X%.[ K R m c.I x.LXxX",
"* MX{.tXSXcXLXD m Z.z.*X8X,X5XsXDXVXnX3Xz.gX.XJ.%X9.9XBXDX,.8 s.:.Z % w @X,.[.>XlX,X<.' W ' $.3Xu.`.8XMXrX~ >.%.P R h %.L.-.IXzX",
": W.1X;XkXrXSXU.S `.&.&X@XT.pX@X,X6X_.l.Z.aX'.z.V.N.F.gXlX3 7 q p %.R.F >X,.~.L.z.h.] I 2.g.m a.| ;.(.C.7X[.! &.} } E 9.,X$.IX6X",
"< 3._.6X>XT.4X'.C.$.$.B.1.:.<X1.+.'.6XaX<X,X6XiXdXzX1XnX>X= q 0 $ 7 c ,XX.&XzXE.+.H m C j. .n U c.R @.].1.0XxXD 9.0.Q w.#X>XzXS.",
"  ;.{.2XXX3X|.l.v.n.U ) q.m.F.OX#.h.oX0.9.3XnXtX|.3XmXMXSX+ 7 i k f w g.2 c.,XsXnXaX6.F H  .x K `._.>.XXz.F.gX>XF m ] T.$.;.VXS.",
"  <.(.{.8X2.%.&.Q f.e.} W n.h.j.D.A.-.T u.z.SX8X3X6X3X-XdXT.=.g r @ n cXb x.sX8XC.G.oXhXR.3.b p m ;. .g.R  .c.a.xXE.,.F  .a.DXzX",
". *.}.T.P.8XuXAXz.B J.qXf.U m F.x.D.0X] Y *X7XA.C.c.}.gXF w ) ] :.I V.,.I h.].=X+.$.j.s.j.r.z.5.A $ E _.{ [ { T {.X.] ]  .-.SXBX",
". +.>.*.l.uX8X8XuX..g.;.3X&.} &XA.a.{ p.J.Z.s.s.`.,XR &XA 6 8 q a W hXX.6XnX+XT.z.:.g.a.` n n N -X6.F 3.2.E s.9XX.I 9.Y H  .HXnX",
". +.l.oXXX2XtXtX3XXX<.Z.l.g.`.;.D.%XG.z.s.h.D.t.q.7Xl.G.> 9 w 0 0 q $X,.sX@XS.Z.S.B.r.a.g.g.] { 9. XG.A.5.F z.[., ` 9.U l.z.VXdX",
". &.v.:XoXwXNXJX7XoXx.F.8.n.qXF.`.sXgX-Xx.&X9Xk.9..XH.=X+ q 8 @ 7 i &XD %X3.-.B.B.1.g.d.x.-.[ h.d.S ] e.t. .A.G u K W u P v.VX<X",
"1 rXQ.;X8X2.}.,X[.`.5X`..XNX:X8XxXsX7X4X&X'. Xz.z.Z.fXAX, n v N h k aX4 5Xd.E ;.1.=.:.:.V.d. .N 0.I g.j.0.8.jX,.j P %.H L l.nX<X",
"3 L.U.>X1X1X[.E.W.E.lX[.1X6X>X>XE.+XzX6X<X6XkX1X+X>XR.,X3.6.E.[.6.'.4X=.T.[.Y.+X6.Y.+X>XE.6.<X+X+XR.'.R.R.'.+XT.4.4._ =.+.+.5.R."
};
