/* XPM */
static const char *wall2[] = {
/* columns rows colors chars-per-pixel */
"64 64 256 2 ",
"   c #612507",
".  c #754A2D",
"X  c #1A5676",
"o  c #2C6879",
"O  c #2D536B",
"+  c #545859",
"@  c #715B49",
"#  c #796957",
"$  c #6F6B57",
"%  c #545D68",
"&  c #5B6768",
"*  c #4B6B75",
"=  c #566A74",
"-  c #5B787A",
";  c #4A7176",
":  c #666A65",
">  c #766D67",
",  c #6A766A",
"<  c #777769",
"1  c #6A7979",
"2  c #767A76",
"3  c #615F62",
"4  c #8A552D",
"5  c #8C5936",
"6  c #975B38",
"7  c #985228",
"8  c #8A643A",
"9  c #93653A",
"0  c #9A6939",
"q  c #986936",
"w  c #A4643C",
"e  c #A46B3C",
"r  c #AA6A37",
"t  c #AD733E",
"y  c #A8773B",
"u  c #B4763B",
"i  c #B56D32",
"p  c #A65E33",
"a  c #89684A",
"s  c #9C6B43",
"d  c #9C6B4B",
"f  c #966746",
"g  c #9B7549",
"h  c #886C58",
"j  c #956C53",
"k  c #887559",
"l  c #9B7453",
"z  c #9B7C5D",
"x  c #987857",
"c  c #8C754A",
"v  c #A36642",
"b  c #A36C44",
"n  c #A96D43",
"m  c #A36D4A",
"M  c #AA6A47",
"N  c #A47343",
"B  c #AB7344",
"V  c #AC7A45",
"C  c #A3744B",
"Z  c #A47B4C",
"A  c #AC7C4C",
"S  c #A97648",
"D  c #B27B45",
"F  c #B27D4B",
"G  c #B67A46",
"H  c #A47B53",
"J  c #AB7C53",
"K  c #A37D5B",
"L  c #A77856",
"P  c #B37E53",
"I  c #AE6D48",
"U  c #877966",
"Y  c #977C65",
"T  c #867E75",
"R  c #937B70",
"E  c #A57D63",
"W  c #AF7D67",
"Q  c #8C5E45",
"!  c #C37127",
"~  c #6B837A",
"^  c #778478",
"/  c #74866A",
"(  c #688368",
")  c #BA8D36",
"_  c #BCA23A",
"`  c #C59D38",
"'  c #C0823E",
"]  c #CBA33C",
"[  c #D4A93B",
"{  c #D8B23D",
"}  c #E7B439",
"|  c #E0AB3D",
" . c #9B855A",
".. c #9B955E",
"X. c #928458",
"o. c #AC844D",
"O. c #AB864B",
"+. c #B2834B",
"@. c #B38A4E",
"#. c #BB8C4D",
"$. c #B88546",
"%. c #BB9649",
"&. c #AC8453",
"*. c #AC8B55",
"=. c #A4835C",
"-. c #AB845B",
";. c #AC8B5A",
":. c #A48859",
">. c #B38554",
",. c #B48C54",
"<. c #BA8C54",
"1. c #B3855B",
"2. c #B48B5B",
"3. c #BB8C5A",
"4. c #BA8554",
"5. c #AB955B",
"6. c #B49154",
"7. c #BB9354",
"8. c #B4925B",
"9. c #BB935B",
"0. c #BC9A5C",
"q. c #B7995B",
"w. c #BCA456",
"e. c #BAA449",
"r. c #89836A",
"t. c #9C8363",
"y. c #93836B",
"u. c #998767",
"i. c #9A956A",
"p. c #8D8B74",
"a. c #898879",
"s. c #9B8D73",
"d. c #968977",
"f. c #8A9378",
"g. c #98937A",
"h. c #87946C",
"j. c #A38463",
"k. c #A38B63",
"l. c #AC8C65",
"z. c #A38D6B",
"x. c #AB8C6B",
"c. c #A98567",
"v. c #B38C63",
"b. c #B68B66",
"n. c #AC9364",
"m. c #AC946C",
"M. c #A7976A",
"N. c #B39464",
"B. c #BA9463",
"V. c #BB9B63",
"C. c #B3946C",
"Z. c #B79969",
"A. c #A88974",
"S. c #B48874",
"D. c #A89677",
"F. c #B39B74",
"G. c #B69877",
"H. c #B9A369",
"J. c #ACA278",
"K. c #BAA477",
"L. c #B3AC6B",
"P. c #C38A48",
"I. c #C6974A",
"U. c #C38B58",
"Y. c #C2945B",
"T. c #C59657",
"R. c #D19850",
"E. c #CBA545",
"W. c #C9A749",
"Q. c #D3AB44",
"!. c #D2AB4B",
"~. c #D9AB45",
"^. c #D9B548",
"/. c #CCAB53",
"(. c #C6A657",
"). c #D3AA59",
"_. c #D6B455",
"`. c #CBB34E",
"'. c #E2B847",
"]. c #E6B348",
"[. c #C29C64",
"{. c #C49766",
"}. c #C3966F",
"|. c #C3A364",
" X c #C6A769",
".X c #C6A877",
"XX c #CBB377",
"oX c #D8B476",
"OX c #D1AF68",
"+X c #E0B67D",
"@X c #E2C27C",
"#X c #196688",
"$X c #2F6F8C",
"%X c #307CA5",
"&X c #527A87",
"*X c #4C788E",
"=X c #737D84",
"-X c #647D89",
";X c #407BA2",
":X c #3585A5",
">X c #5A8588",
",X c #56879A",
"<X c #698687",
"1X c #768986",
"2X c #798C92",
"3X c #6D9597",
"4X c #799597",
"5X c #6C8E8F",
"6X c #5989A5",
"7X c #5294AF",
"8X c #7799A7",
"9X c #7097AD",
"0X c #77A5AE",
"qX c #69A7C9",
"wX c #868B85",
"eX c #8A9588",
"rX c #979586",
"tX c #8A9898",
"yX c #979A97",
"uX c #918D8A",
"iX c #A69A87",
"pX c #A59C93",
"aX c #B09287",
"sX c #99A599",
"dX c #8EA394",
"fX c #A9A588",
"gX c #B6A986",
"hX c #BCB888",
"jX c #A7A697",
"kX c #B6AB96",
"lX c #B8B398",
"zX c #A9B398",
"xX c #869AA6",
"cX c #9399A6",
"vX c #87A4A7",
"bX c #97A8A6",
"nX c #93B0B5",
"mX c #A5AAA7",
"MX c #A9B3AB",
"NX c #B8B7A8",
"BX c #A8B4B2",
"VX c #C5AD84",
"CX c #C7B287",
"ZX c #C7B897",
"AX c #D0B58C",
"SX c #C3BBA6",
"DX c #C1BFB4",
"FX c #B8C3B3",
"GX c #D6C492",
"HX c #D6CCB3",
"JX c #D0C9B1",
"KX c #E3D8B9",
"LX c #E7C883",
"PX c #9DBBC4",
"IX c #AEC4CA",
"UX c #E0DDC9",
/* pixels */
"y ;.yXoX.X;.Y.a.g u t N t pXH b b B C -.2.z.p.).< :.2.8.3.: l $.A V j.C.>.>.2.A v w f w.Q.!.5.1Xg.j.2 <XvXF.Y : = 1 < Y A.m.O.$.",
"X.fXpX[.[.2.T.1 : r t B i aXL e e e E l.,.}.H.`.H.B.,.&.<.1X=.G +.u J v.3.4.<.G w i # /.[ E.Q.].Z.2.<.T.U (./.w.%.fXA.y.tXD.K & ",
"<XqXuXm.J.k.,.- * r.1 : # eXy.0 N n k -.2.F.J.p.Z.r.s.n.9.vXu.&.&.C.pXsXrX2 p.1X$ j V...f.q.!.h.C.#.>.{.M.W.!.!.^.O.E 1.>.J A.1X",
"P.B.JXBX2X- $Xo m.V.k.D.3Xx >.J K -.+ <  X# :.7.V g &.^ y.-.j.z.PXsXP -.H c <XtX<X- 5./ < l x ^ eX1XD.v.F./././.!.N.K -.L >.@ *.",
"8.$.|.NXJ 4.;., x >.2.<., g $.A D l = 1 y..XV.&.7.#.$., ;.Y.8.#.kXeXu V u J d.#.3.B.J.1Xf 9 4 V bX*XP l d rXa.H.0.[.v.A.d.x.v.8.",
"K.@. XjXJ P G U k.*.;.3.: Y 4.A A &.n K 1X^ sX&.q O.R.~ i.Y.2.<.F.g.t A Z g t.&.N.>.a.1 0 9 8 q 1X-XG C B R <X9.:.8.N.g.N.N.Z..X",
"|.#.AXkXB H H u.N.,.,.<.1 K ' u u ;.d K ].; qXMXl.8 f 6Xu.<.2.#.n.d.u Z b 0 ,.&.8.<.2 : 6 8 9 0 4X1Xt C B U <X0.8.q.n.g.6.q.q.2.",
"XX$.jXg.G  .u.# k.N.U D.vX4X^ 2XmXfXl l I.>X^ V.Z.s.t.6Xf.Y.8.K.z.< y Z t.U  .n.k.7.1 1 x c 8 N 8X2 B s B : & T.6.0.C.g.0.q.6.q.",
"bXhXH.#X* 2 T.$.y y , k.9.m.k.nXvXD C S J &Xz.9.N.,.6.u.V.9.q..X4XvXtXbXnXm.=.< a.C.f.U 1.-.Y pXPXK L J V 3XvXV.M.Z. XN.6.7.7.7.",
"g.G.A.rXz rXZ @.7.) , u.Y.<.P.J.wXu V A V - M.8.,.,.k.1XI.6.,.0.lXHXKXUXKXV.,.y x.m.r.K F J P A.v.3.v.{., L._.hXhXGXXXx.z.eXf.F.",
"!.(.J.VXr.nXJ.q N P.~ f.3.2.<.m.a.B Z H N < V.9.,.7.g.5X#.6.@.8.NXHXZXGXHXZ.8.I.~ 1X2.K J J v.b.<.<.1.U.: e.^.{ { ^.|.c.c.c.A.K.",
"!.!.Q.} ~ 7XZXa.U g 7Xf.T.2.<.n.r.u V y e y.<Xz.C.T.~ 3XI.,.,.9.NXZX}..XAX.XO.y - 3XB.A J P kXiX<.2.=.{.1XfX^.^.^.`.U 2.1.>.l.n.",
"!.W.E.| / ^ T.n.F.8.3XeXy j.aXa.wXF.r.1 =.iX,X.XfXB.1XvX9.n.n.n.bXgXgXgXgXfXgXa %X>Xv.U j.A yXiX>.2.1.B.6XzXQ.Q.^.^.k.C.1.1.j.t.",
"!.Q.] ~.~ u.9.8.,.:.i.7.*.8.V.sXBXDXFXIXV.D.iX+XXX2.Z.u.a y.p.U 2X2XT 2 2 1XrX7.p.i. Xd.j f U =XtXl.c.x.7XBX!.(.e.XXV.<.3.3.2.q.",
"W.%.%.E.o C.2.,.<.z.1XT.6.6.0.ZXHXKXKXUXV.s.G.XXN.9.z.2 i r r i x.iXr n r t j., bX^ , A.6 9 4 7 h ;.*.-.l.pXjXa.2 =XyXH m K A.9.",
";X7XX $X$XN.T.8.7.D.1XI.&.,.8.SXJXH.CXHXZ.z.G..X8.,.M.- u B S r x.iXe s e H uXl.F.u.rXx 6 5 5 5 l -.&.&.@.yXgXU.U.U.C.b f f m m ",
"iXZ.l.u.1X&Xa.z.[.>X8XP.,.7.T.JXZX.X.XCX.X0.Z.V.Z.9.a.; D V S N b.D.r e t C * :.2.1.2.j Q Q 6 6 C -.&.H &.rXx.b.1.>.}.S v 0 w M ",
"8.,.o.$.m.2X.X.Xz.~ zXY.m.u.wXnXkXgXeXeX4XrX5.;.2.n.p.;.l.Z.F. .A.mXA.z.x a o l.;.;.1.: > wX6X= U #.>.<.<.SXG.4.4.>.J n v 6 v v ",
"2.@.Z y iXjXoXK.,.9.j.t B N d d.iXC d Y x j.8.8.q.n.p.7.8.q.9.gX8X8XU 2 - * 1XT.@.o.,.1X&. .1X- * : : $ & xXMXc.z v.g 0 r n e I ",
":.o.$.P.tXgXAX8.,.z.: i t B r b.iXw B r M l.q.V.V.H.D.,.8.,.V.CXa.Y b I x a.z.n.r.u.[.vX<Xi.} ~.(.w.g.z z s.bX5Xr.|.^ 6Xg.2 & tX",
"D.a.= - tX{.OX7.#.n.*XV B S t v.iXe b e d s.V.V.8.V.9.,.6.7.q.x f bX$Xd.t.T.) g Z 1 k.,.z.M.Q.E.E.^. XB.9.Y.&...].!./.(.t.j.s.d.",
"L r.z.0XPXU : rXn.r.o u t B t b.gXr N t f r.OXOXOX.Xk.M.Z.V..Xk a iX&XI j.Z ,.7.) : k.Y.z./.E.E.W.w., 3.2.>.VX X/.W.!.W.a v.1.F ",
"C c I.P.CXJXtX< - :X&XB Z g 0 u.4Xa.uXu.R ,X`.{ ^.[.j.x.b.G.K. XlXgXZ.r.vX-.q N R.~ i.Y.:.W.Q.] ^.5.U T.,.8.u.(.!./.W.OXx.K -.J ",
"1.V.,.,.$.ZXiXG 4.B.x.eXg.eXvX~ 2 l j x j h (.^.`.k v.1.<.=...~.Q.Q.~.; 7XjXg.g c 7Xr.<.,.<.0.M.` # # u.C.Z.h E._._.~.H.b.1.c.K ",
"F.7.7.7.6.SXt.A J F =.dXP.9.{. XG.w m m M m (.^._.l.l.v.2.j.X._.W.E.| / < 9.Z.Z.y.6XyXU.Z.kXD.2 F m.1 3 > 8XtXK.oXu.5.fX1 y.S.c.",
"<Xl.8.&.[.FX2.F V F y.4X#.*.,.F.iXv d s m d 5.W. XB.3.2.2.2.V.~.Q.E.Q.( s.9.8.,.*.i.q.B.V.H.tXbXjXFXbX    jXKXZX.XJ.n.ZXqX2 Y < ",
"d h O %.@XtXx Z 4.P.* >XT.2.@.gXmXs s 0 s d 2 a.vX1Xx -.b.B./.I.%.Q.Q.o m.2.,.,.z.1XI.6.7.0.NXHXHXUXJX2 : 8XNXK.gXgXJ.H.K.h f B ",
"f T 7XFXM.3X7X1 ^ k ; >X9.n.q.NXnXb b d v a < U.x.G.b b m n f $X7X; 1X$XV.9.,.7.D.5XP.6.&. .kXSXgXVXnXxXcX2XuXU 3X<X1X< 2 < m.# ",
"` w.v.k.=.v.jXz.F.D.h j j j L g.1Xz.z.K j.U k 3.>.}.S v w w v s.K.u.1X<X<Xd.N.Y.~ 0XP.6.;.u.V.N.N.9..XW S.1.F aXgX(.w.XX@ ) [ ` ",
"] V.&.@.+.#.G.1XwXiXf.f.y.= + z #.2.*.,.NXb.U.>.2.l v f 3 d M 8.#.#.) F.5X.XgXD.eXdXY.,.n.u.,.;.*.8.G.aXaXA.J y.fX0.Z.|.c ) ` [ ",
"_ x &.&.>.>.B.u.jX2XH -.u.>X$X* > < t.U nXNX=.1.U.d p # 1 H # t.rX, g yXjXoX.X7.8.Y m S g  .:.:.;.*.D.aXA.E J 3 z.|.V.XXm.` ] ` ",
"_ U #.+.+.>.B.2.{.wXZ Z :.].W.e.i.rX-.u.=XvX4X.Xc.* =X6Xa 9 9 9 pX$XT T S.G.2 5.n.r.$.N e ;.n.*.;.9.iXaXS.S.P 2 J. X XHXsX) ` ) ",
"6.U m.m.z.z.Z.2.8.r.Z J i.[ E.E.^. Xv.,.T.2.u.^.(.e.w.9Xk 9 f 8 u.&XJ B C K %Xi.*.;.q.<  .s.k.Z.M.r.U d.uXwX2 1 p.m.D.sXwXc #.%.",
"F D J.gXgXfXM.8.,.tXJ l./.E.E.!.w.^ 3.;.>.CX XW.!.!.W.2 9 8 9 4 fX8Xn C S d *Xm.2.8.8.m.2.;.V.V.C.f 0 f < *.6X2XC.,.*.+.s.wXG F ",
"z.iXF.^ ,X&X2Xm.N.5Xu.X.E.[ ] ^.5.U <.>.[.Y (.!./.!. X= x 8 f q rXvXr N N f O V.V.q.H. X*.@.6.7.F.iXK h ; N.eXg.C./ s.{.f.1X:.t.",
"bX-.V N A j -.a.k.l.l.C.lXq.%.I.< s.VXC.B.z ` _._.~.M.= b.Y c.z *XxXF C S K ,XV.q.6.V. X,.@.6.7.l.Y > : : gXT.u N l t.a.2.n.2.jX",
"mXV F F V h z ^ k.Y.2.#.NXrXu A F x -X1 2XsXhX0. ./.fXa.F J J j.rX<.x.-.y.g.L.OXOX Xn.s.Z.V.0.|.v.f C b n iX=.#.7.$. .^ T.3.>.9.",
"kXV A C s k v.~ k.9.2.,.gXm.t Z S f     jXHXSXXXK.u.zXc.J Z J {.<.<.#.<.F.i.} { ^.'.7.E l.b.C.1XM.J.gX3.U 6Xz.e 0 I.p.~ T.2.2.,.",
"m.S 0 0 t E fX<Xk.<.>.#.V.=.r 0 s f # @ tXZX.XK.K. XJ.-.P J G.pX<.2.2.<.a.rX/.Q.^.^.|.-.v.1.<.k W.{ Q.]./ %XBXD.z 8 &X5XP.2.@.7.",
"j.C Z u.< U -X,XC.<.Z.kXr.s.G.C.v.uX9XcXxXpXa.:XX O wXt.x C kXnXP.3.2.U.- PXLX[ ^.!.n.-.x.>.1.B./.!.E.[ i.<X8.Z.K.t.3X4XU.3.gXJ.",
"xXyXjXBXiX-.b &.q.B.[.J.< Z.G.C.H.VXE A.W S S.gXq.n.K.d.+ # Y wXd.R y.<.tXIXOXe.W.e., U.;.>.2.T.!.!.E.[ , <XT.8.N.%.X.5.V.B.|.rX",
"JXKXKXUXhX,.d x.7.@.@.N.p.6.*.;.8.G.S.aXA.J uXgX|.H.|.v.f 6 5 4 a j.=.>.n.uX2 U d.sX9Xz 2.b.1.T.E.I.E.} , , T.*.2.9.eXn.6.@.6.D.",
"JXZXAXJXkX8.d v.6.6.o.N.g.*.;.:.*.aXaXW c.P : M.|.V.XXb.5 5 5 5 9 1.;.-.o.C.yXU.2.l.F.E w d b n = :X>X~ $Xl.T.,.,.2.,Xn.7.,.@.D.",
"SX.X.X.XCX6.m l.6.,.,.,.D.*.;.;.6.A.aXS.S.P 2 H.).).KXiX6 6 p 7 d -.&.-.o.gXlX1.1.4.>.j v 6 w v -.D.u.1X<X4Xa.N.K.n.:XV.#.8.@.z.",
"zX.XVXCXCXlXK z.n.*.8.J.4X:.:.n.gXsX=X> 2 u.<X1 < 5X4X-XD.u.% & U >.>.&.+.iXkX4.2.2.&.f n w w v 1.7.@.$.#.9XgXCXkXK.0XF.,.;.V.tX",
"2XY h d.rXyXs.< C g K u.4Xa.k U rXtXp.X.5X.XCX .:.1 k # p.2 ~ $X; U U l.l.tXbXl.v.3.4.n r e e b m.,.O.O. .wXoXAX2.Y.^ h C z j.f.",
"uXV e e r x z.< ! u r i y.A.r B r b t.F.sXOXK.,.T.a.s u i k /.!.W...eXv.z.1 1XtXG.-.> -X1X2 Y A.=.$.$.y D.yXoXK.;.Y.1Xs u t r i ",
"tXJ b s n < ,X>X@ k C B d.iXb s s l d.jXG..X[.,.3.>Xg u b u.!.E.E.'.(.x.>.<.Y.XX/./ 5.w.rXY A.uX1.h & y.jXG. X[.,.9.5Xg u S S B ",
"mXS e B r z z.l.g.dX2 &.K 2.E L r S A.7XiXC.D.o.*.X C u H i.[ E.W.Q.D.x.2.2.l.H.w.&XH a g D.< j.J tX^ eX9XrXG.m.:. .#XC u t t D ",
"vXiXD.E k U B.2.<.k.< $.V V F j.x Y 5XCXJXxX~ *X&X#XC B g I.[ [ Q.(.r.3.,.9.A.8 L.^ 9 f 5 gX7X2 d.z.}.iXfXgXsXwX* o $XZ V C s s ",
",Xa.x > & 1 3.8.2.z : P.A A +.Y : & & @.GXlXD -.y.tX1.N.jXgXJ...I.n.1 Z.F.o..X_.i.# 9 f 8 H 7XY n m J ,Xi.@.2.7.K.m.M.M.z.rXtX8X",
"m.m n M j s.P.o.,.u., P.D D V F w r I +.VXfXV >.4.G Z.N.8.K.F.g.L m l = % 2 bXfX^ @ 9 8 8 t.7Xl m C S 1 i.8.N.8.iXN.9.0.0.Y.V.K.",
"BXl d ^ r.n./ s.8.F.4Xg :.B.fXD.g U 2 7.JXD.F A A H 4X6.@.@.9.MXd m d .   U HXmX1X< 9 f 0 z 7XL B b F - k.0.V.0.g.;.o.6.8.H.,.8.",
"BXd f u.P.y g  .a.3.l.-.fX0Xj.>.A A d.V.NX-.$.G D J &X7.,.,.[.nXs w 6 @ . 2 FX.XwXj.K z =.4X-XN C C H %XM.0.8.q.n.2.O.6.,. XB.8.",
"nXb S y.+.7.P.g < Y.3.2.Y.tXZ D V t z K.h.$X: < <.: *X|.<.m.p.xXR W y.6XxX8XmXT : P A J E yX2.-.K z r.fXXX|.H.H.F.N.V.q.B.J.m.N.",
"gXz 1 jXq 0 #.2.>X9.2.2.7.rXH t A N l ^ t.f.W./ 2 , 2 z.D.eXm.F.G.V.a.R A.c.J L U >.J J v.3.#.<.3.Y / } { ^.^._.l.l.C.S.rXD.hXK.",
"~.w.:XPXiX:.5 p.7X,.2.>.#.g.J V N e S >.P.Z ^.K.J $.F K pXd.N.8.*.8.x A.aXA.K c.1.J J l.yXv.2.2.9.l.<X_.Q.Q.'.5.=.-.>.>.l.!.~.Q.",
"Q.E.$Xk.C.H.u.a.7XB.<.G.gX^ g V x.< # -.>.O.`.D.A J H 1.{.t.k.*.;.*.C.aXA.A.L d.u.j K x.bX,.<.>.B.D.9XOXQ.E.^...Y -.2.1.y.(.!.W.",
"] %.- 9.8.B.#.5.n.9.9.V.gX8XtXyXBXjX*.;.<.k / D.A J 2.iXv.t. .8.n.*.K.kXS.S.J j.tX3 > E uXrXa.U 3.1 qXoX_ /.'. X2.3.2.3.x./.!.E.",
"} ..<X[.*.*.<.^ n.%.6.6..XDXKXKXUXZX6.,.&.k R J l K b.nX>.2.M.:.;.Z.gX1X2 U R r.<XS 6 6 4 a a.-.&.z.jXNXr.g.jXnXY 2.2.2.9.W.I.~.",
"^ $X<X).2.,.T.1Xu.7.6.,.K.JXJXAXHXZX8.>.1Xa.4.l.2 L I tXyXiXd.y.p.qXGXW.W.'.h.t.c.f 5 5 5 5 x 2.-.A 2.mX{.4.j.C.E w M m n + $X3X",
"^ 5X1X^ C.Z.8.,XZ.6.,.@..XJX.XK..XVXN.,.kXC.2.2.m % & + : wX-.K D.mXfXH.fXh.1XC.K f 9 p 7 6 =.&.&.&.j.uXB.1.>.3.4.w v w r > s.D.",
"+.P.1XrX.XD.l.,XJ.,.8.8.zXMXgXgXVXlXlXZ.MX}.4.C.j s.m.u.rX&Xk u.&.V uXA.c.Y S.R j j.l 3 & R >.>.&.&.C.kX3.>.2.2.1.w w w w &.q.#.",
"g >.bXK.AXV.9.Z.z j t.Y a.4Xy.U T eXrXa.6XnXp.G.$ :.Y.>.{.1Xg G A F l v.3.3.<.Z v w s - %X#Xy.=.j.2.s.IXC.1.1.1.C v n s 0 J 8.o."
};
